images/logo.svg

<svg width="140" height="111" viewBox="0 0 140 111" fill="none" xmlns="http://www.w3.org/2000/svg">
<path d="M58.5439 32.3278V0C58.014 3.68104 57.4858 7.36129 56.9591 11.0408C56.221 16.1827 55.4826 21.3245 54.744 26.4659L54.6923 26.8189L54.3394 26.8758C52.0917 27.2418 49.8959 27.8725 47.7983 28.7544C45.1308 29.8748 42.649 31.3892 40.4369 33.2462L40.1547 33.4832L39.8479 33.2786L29.9392 26.6262L28.2375 25.4843L36.017 37.3385L36.2053 37.6251L35.9971 37.8976C34.5616 39.7833 33.3671 41.8388 32.4412 44.0169C31.556 46.0935 30.9223 48.2673 30.5536 50.4924L30.4955 50.8431L30.1419 50.8952L0.274996 55.2385L0 55.2788C10.0473 56.7397 20.0946 58.2017 30.1419 59.6648L30.4955 59.7153L30.5536 60.0659C30.922 62.2912 31.5557 64.465 32.4412 66.5415C33.3671 68.7196 34.5616 70.775 35.9971 72.6608L36.2053 72.9333L36.017 73.2199L29.9511 82.4641L28.2375 85.0749L32.0915 82.4878L39.8479 77.2798L40.1547 77.0752L40.4369 77.3121C42.6492 79.1681 45.131 80.6814 47.7983 81.8008C49.8956 82.6835 52.0915 83.3142 54.3394 83.6795L54.6923 83.7363L54.744 84.0901C55.4778 89.1968 56.2112 94.3035 56.944 99.4102C57.4776 103.126 58.0109 106.841 58.5439 110.556V78.2306C46.0863 77.97 36.0313 67.8208 36.0313 55.3807V55.1769C36.0313 42.7368 46.0863 32.5876 58.5439 32.3278ZM33.6461 31.0959C36.1063 32.9912 38.5656 34.8865 41.0242 36.7817C40.5065 37.3445 40.0135 37.9284 39.5451 38.5333C37.5798 36.0536 35.6135 33.5745 33.6461 31.0959ZM33.906 57.2057L14.9295 55.2788L33.906 53.3527C33.8673 53.9497 33.8477 54.5512 33.8472 55.1572V55.4004C33.8472 56.0069 33.8668 56.6087 33.906 57.2057ZM41.0775 73.8343C38.5447 75.817 36.0117 77.8007 33.4784 79.7855C35.4988 77.1963 37.5197 74.6077 39.5411 72.0196C40.0259 72.6466 40.5381 73.2523 41.0775 73.8367V73.8343Z" fill="#E32528"/>
<path d="M66.7606 55.1392L60.025 42.9882C59.6859 42.3818 59.3384 41.9744 58.9877 41.7649C58.5901 41.5442 58.1396 41.4351 57.6844 41.4491H56.4839C56.081 41.4412 55.6845 41.551 55.3438 41.7649C55.0182 41.9755 54.6862 42.3832 54.3479 42.9882L47.6726 55.1392C47.6414 55.1883 47.6208 55.2434 47.6121 55.3008C47.6033 55.3582 47.6066 55.4168 47.6218 55.4729C47.6557 55.5603 47.7616 55.6045 47.9396 55.6045H50.5885C50.6839 55.6105 50.7789 55.5888 50.8621 55.5421C50.9452 55.4953 51.0129 55.4256 51.0569 55.3413L52.4597 52.7336H62.0233L63.4601 55.3403C63.5413 55.5157 63.6974 55.6035 63.9284 55.6035H66.5127C66.6748 55.6035 66.7733 55.5593 66.8072 55.4719C66.8228 55.4162 66.8268 55.358 66.8187 55.3007C66.8107 55.2435 66.7909 55.1885 66.7606 55.1392ZM53.7376 50.3923L56.9311 44.4684C56.9514 44.4263 56.9833 44.3906 57.023 44.3655C57.0627 44.3404 57.1086 44.3268 57.1557 44.3263H57.2765C57.3236 44.3267 57.3696 44.3402 57.4093 44.3653C57.449 44.3905 57.4808 44.4262 57.5011 44.4684L60.737 50.3923H53.7376Z" fill="#E32528"/>
<path d="M82.3466 41.4523H66.4532C66.1417 41.4523 65.9849 41.6007 65.9849 41.8965V43.8778C65.9849 44.1937 66.1417 44.3432 66.4532 44.3432H72.8434V55.1603C72.8434 55.4561 72.9917 55.6046 73.2905 55.6046H75.5082C75.807 55.6046 75.9564 55.4565 75.9564 55.1603V44.3432H82.3455C82.657 44.3432 82.8139 44.1884 82.8139 43.8778V41.8965C82.8149 41.6007 82.6581 41.4523 82.3466 41.4523Z" fill="#E32528"/>
<path d="M99.8653 52.7337H91.6251C91.1838 52.7432 90.743 52.6993 90.3123 52.6031C90.0015 52.5345 89.7162 52.3806 89.4891 52.1589C89.2687 51.92 89.1172 51.6265 89.0504 51.3093C88.9535 50.8679 88.909 50.4166 88.918 49.9649V41.8965C88.918 41.6011 88.7689 41.453 88.4708 41.4523H86.2733C85.9554 41.4523 85.806 41.6007 85.806 41.8965V50.2671C85.806 51.2377 85.912 52.0634 86.1239 52.7442C86.3041 53.3739 86.648 53.9455 87.1209 54.4013C87.6207 54.8502 88.2264 55.1667 88.8819 55.3214C89.6003 55.5109 90.4752 55.6053 91.5065 55.6046H99.8685C100.167 55.6046 100.318 55.4561 100.318 55.1603V53.1779C100.315 52.8821 100.164 52.7337 99.8653 52.7337Z" fill="#E32528"/>
<path d="M121.272 55.1392L114.537 42.9882C114.198 42.3818 113.852 41.9741 113.499 41.7649C113.102 41.5441 112.652 41.4349 112.197 41.4491H110.997C110.594 41.4412 110.198 41.551 109.857 41.7649C109.532 41.9755 109.2 42.3833 108.86 42.9882L102.185 55.1392C102.153 55.1884 102.133 55.2434 102.124 55.3008C102.115 55.3582 102.119 55.4168 102.134 55.4729C102.168 55.5603 102.273 55.6045 102.452 55.6045H105.101C105.196 55.6107 105.291 55.5891 105.374 55.5423C105.457 55.4956 105.524 55.4257 105.568 55.3414L106.973 52.7337H116.536L117.975 55.3403C118.058 55.5161 118.213 55.6035 118.445 55.6035H121.028C121.191 55.6035 121.29 55.5593 121.323 55.4719C121.338 55.4159 121.341 55.3574 121.332 55.3002C121.323 55.2429 121.303 55.1881 121.272 55.1392ZM108.248 50.3923L111.444 44.4684C111.464 44.4263 111.496 44.3906 111.535 44.3655C111.575 44.3403 111.621 44.3268 111.668 44.3263H111.79C111.837 44.3267 111.883 44.3402 111.922 44.3653C111.962 44.3905 111.994 44.4262 112.014 44.4684L115.249 50.3923H108.248Z" fill="#E32528"/>
<path d="M138.244 48.1142C137.646 47.5141 136.757 47.214 135.578 47.214H127.949C127.243 47.214 126.889 46.8368 126.889 46.0823V45.3938C126.873 45.0982 126.959 44.8059 127.133 44.5653C127.297 44.3632 127.574 44.2621 127.968 44.2621H138.159C138.457 44.2621 138.606 44.1137 138.606 43.8168V41.8965C138.606 41.6011 138.457 41.453 138.159 41.4523H127.377C126.143 41.4523 125.234 41.7551 124.65 42.3608C124.067 42.9665 123.775 43.762 123.775 44.7474V46.2213C123.775 47.3393 124.073 48.1984 124.67 48.7985C125.266 49.3985 126.155 49.6986 127.336 49.6986H134.965C135.672 49.6986 136.025 50.0758 136.025 50.8303V51.6599C136.041 51.9561 135.955 52.249 135.78 52.4894C135.618 52.6909 135.34 52.7916 134.946 52.7916H124.264C123.946 52.7916 123.796 52.94 123.796 53.2369V55.1582C123.796 55.454 123.951 55.6025 124.264 55.6025H135.536C136.77 55.6025 137.68 55.2989 138.264 54.6918C138.848 54.0847 139.14 53.2895 139.139 52.3063V50.6924C139.139 49.5736 138.84 48.7142 138.244 48.1142Z" fill="#E32528"/>
<path d="M56.6258 66.1417H51.3385C51.0554 66.1474 50.7725 66.1192 50.4962 66.0575C50.2962 66.0136 50.1126 65.9148 49.9664 65.7722C49.8248 65.6195 49.7277 65.4313 49.6856 65.2279C49.6227 64.9445 49.5939 64.6548 49.5998 64.3646V59.1882C49.6053 59.1496 49.6017 59.1103 49.5892 59.0733C49.5768 59.0363 49.5559 59.0028 49.5281 58.9752C49.5004 58.9476 49.4666 58.9269 49.4294 58.9145C49.3922 58.9021 49.3526 58.8985 49.3137 58.904H47.9024C47.7021 58.904 47.6025 58.9987 47.6025 59.1882V64.5573C47.5912 65.0942 47.6594 65.6298 47.8049 66.147C47.9184 66.5511 48.1378 66.918 48.4407 67.2103C48.7613 67.4984 49.1497 67.7019 49.5701 67.8019C50.1217 67.933 50.6878 67.9939 51.2549 67.983H56.6194C56.6585 67.9884 56.6984 67.9848 56.7358 67.9723C56.7733 67.9598 56.8073 67.9389 56.8353 67.9111C56.8632 67.8834 56.8843 67.8495 56.8968 67.8123C56.9094 67.7751 56.9131 67.7355 56.9076 67.6966V66.426C56.9127 66.3878 56.909 66.349 56.8967 66.3125C56.8844 66.276 56.8639 66.2427 56.8367 66.2153C56.8095 66.1879 56.7764 66.167 56.7398 66.1542C56.7032 66.1415 56.6642 66.1372 56.6258 66.1417Z" fill="#E32528"/>
<path d="M69.7865 60.7452C69.673 60.3442 69.4535 59.9806 69.1507 59.6925C68.8272 59.4034 68.4366 59.1986 68.0138 59.0966C67.4595 58.96 66.8895 58.8966 66.3185 58.9081H62.2943C61.7272 58.8968 61.161 58.9601 60.6107 59.0966C60.1905 59.1996 59.8024 59.4043 59.4812 59.6925C59.1803 59.9821 58.961 60.3451 58.8454 60.7452C58.7 61.2588 58.6318 61.7909 58.6431 62.3244V64.5552C58.6317 65.092 58.6999 65.6277 58.8454 66.1448C58.9593 66.5487 59.1786 66.9156 59.4812 67.2081C59.802 67.4961 60.1903 67.6995 60.6107 67.7998C61.1619 67.9308 61.7276 67.9917 62.2943 67.9808H66.328C66.8986 67.9918 67.4682 67.931 68.0233 67.7998C68.4463 67.7005 68.8373 67.497 69.1603 67.2081C69.4647 66.917 69.6843 66.5497 69.796 66.1448C69.9371 65.6269 70.0031 65.0916 69.992 64.5552V62.3244C69.9998 61.7909 69.9306 61.2591 69.7865 60.7452ZM67.9852 64.4162C67.9908 64.7018 67.962 64.987 67.8994 65.2658C67.8569 65.4688 67.7603 65.6568 67.6197 65.81C67.4741 65.9537 67.2903 66.0531 67.0899 66.0964C66.8119 66.1595 66.5272 66.1881 66.2422 66.1817H62.3653C62.0803 66.1882 61.7956 66.1596 61.5177 66.0964C61.3173 66.0529 61.1335 65.9536 60.9879 65.81C60.8472 65.6567 60.7503 65.4688 60.7071 65.2658C60.6453 64.9869 60.6172 64.7017 60.6234 64.4162V62.4707C60.6173 62.1852 60.6454 61.9 60.7071 61.6211C60.7508 61.418 60.8476 61.2299 60.9879 61.0758C61.1344 60.9337 61.3179 60.8349 61.5177 60.7905C61.7957 60.7283 62.0804 60.7 62.3653 60.7063H66.2422C66.5272 60.7001 66.8118 60.7284 67.0899 60.7905C67.2897 60.8348 67.4732 60.9336 67.6197 61.0758C67.7599 61.2297 67.8565 61.4179 67.8994 61.6211C67.9618 61.8999 67.9906 62.1851 67.9852 62.4707V64.4162Z" fill="#E32528"/>
<path d="M74.2313 61.6664C74.2757 61.4657 74.3725 61.2801 74.5121 61.1284C74.6585 60.986 74.8419 60.8869 75.0418 60.8421C75.32 60.7808 75.6046 60.7529 75.8895 60.7589H82.4259C82.6177 60.7589 82.713 60.6536 82.713 60.4599V59.1882C82.7186 59.1495 82.7149 59.11 82.7024 59.073C82.6899 59.0359 82.6689 59.0023 82.641 58.9747C82.6132 58.9471 82.5792 58.9263 82.5419 58.9141C82.5045 58.9018 82.4648 58.8983 82.4259 58.9039H75.8058C75.2387 58.8925 74.6725 58.9559 74.1221 59.0924C73.7019 59.1954 73.3139 59.4001 72.9926 59.6882C72.6916 59.9778 72.4724 60.3408 72.3569 60.741C72.2101 61.2543 72.1415 61.7866 72.1535 62.3202V64.551C72.1413 65.0879 72.2098 65.6237 72.3569 66.1406C72.4707 66.5446 72.69 66.9114 72.9926 67.2039C73.3134 67.4918 73.7018 67.6953 74.1221 67.7956C74.6734 67.9266 75.2391 67.9875 75.8058 67.9766H81.0803C81.6023 67.9766 82.0028 67.8271 82.2818 67.5282C82.5608 67.2292 82.7 66.7168 82.6993 65.9911V62.9686C82.6993 62.7107 82.569 62.5802 82.3083 62.5802H76.8643C76.6725 62.5802 76.5761 62.6791 76.5761 62.8781V63.8509C76.5761 64.0498 76.6725 64.1499 76.8643 64.1499H80.6882C80.7942 64.1499 80.845 64.2056 80.845 64.3183V65.3711C80.845 65.6658 80.7942 65.8711 80.6882 65.988C80.5823 66.1048 80.4191 66.1627 80.1924 66.1627H75.8852C75.6003 66.169 75.3157 66.1407 75.0376 66.0785C74.8378 66.0341 74.6544 65.9353 74.5078 65.7932C74.3674 65.6393 74.2705 65.4511 74.227 65.2479C74.1649 64.9644 74.1368 64.6746 74.1433 64.3846V62.517C74.1384 62.231 74.1679 61.9454 74.2313 61.6664Z" fill="#E32528"/>
<path d="M86.7066 58.9039H85.2963C85.0971 58.9039 84.9965 58.9987 84.9965 59.1881V67.6976C84.9965 67.8882 85.1024 67.984 85.2963 67.984H86.7066C86.7457 67.9894 86.7856 67.9857 86.823 67.9733C86.8605 67.9608 86.8945 67.9398 86.9224 67.9121C86.9504 67.8843 86.9715 67.8505 86.984 67.8133C86.9966 67.7761 87.0002 67.7365 86.9948 67.6976V59.1881C87.0001 59.1494 86.9963 59.1099 86.9837 59.0729C86.971 59.0358 86.9499 59.0022 86.922 58.9747C86.894 58.9471 86.86 58.9264 86.8227 58.9141C86.7853 58.9018 86.7456 58.8983 86.7066 58.9039Z" fill="#E32528"/>
<path d="M98.509 63.1781C98.1255 62.7928 97.5554 62.6005 96.7989 62.6012H91.9037C91.4503 62.6012 91.2239 62.3587 91.2246 61.8737V61.4326C91.2145 61.2446 91.2694 61.0589 91.3803 60.9062C91.4863 60.7757 91.6632 60.7115 91.9101 60.7115H98.4508C98.4898 60.7171 98.5297 60.7136 98.5671 60.7012C98.6046 60.6889 98.6387 60.6681 98.6666 60.6404C98.6946 60.6127 98.7157 60.5789 98.7282 60.5418C98.7408 60.5046 98.7445 60.465 98.739 60.4262V59.1934C98.7443 59.1546 98.7405 59.1152 98.7278 59.0781C98.7152 59.0411 98.6941 59.0075 98.6662 58.9799C98.6382 58.9523 98.6042 58.9316 98.5668 58.9193C98.5295 58.907 98.4897 58.9036 98.4508 58.9091H91.5382C90.7464 58.9091 90.1632 59.1035 89.7889 59.4924C89.4145 59.8812 89.2273 60.3914 89.2273 61.0231V61.9706C89.2273 62.6885 89.4187 63.2402 89.8016 63.6255C90.1844 64.0108 90.7545 64.2031 91.5117 64.2024H96.4122C96.8657 64.2024 97.0921 64.4446 97.0913 64.9288V65.4552C97.1006 65.6432 97.0453 65.8289 96.9345 65.9816C96.8286 66.1111 96.6516 66.1774 96.4048 66.1774H89.5505C89.3502 66.1774 89.2506 66.2722 89.2506 66.4616V67.6934C89.2506 67.8839 89.3502 67.9797 89.5505 67.9797H96.783C97.5749 67.9797 98.1583 67.785 98.5334 67.3954C98.9064 67.007 99.095 66.4964 99.095 65.8647V64.8278C99.0879 64.1119 98.8926 63.562 98.509 63.1781Z" fill="#E32528"/>
<path d="M111.16 58.9039H100.969C100.768 58.9039 100.669 58.9987 100.669 59.1882V60.4599C100.663 60.5004 100.667 60.5417 100.68 60.5805C100.693 60.6194 100.715 60.6547 100.744 60.6837C100.773 60.7127 100.808 60.7345 100.847 60.7476C100.886 60.7606 100.928 60.7645 100.969 60.7589H105.069V67.6976C105.063 67.7364 105.067 67.7758 105.079 67.813C105.092 67.8501 105.113 67.8839 105.14 67.9116C105.168 67.9394 105.202 67.9604 105.239 67.9729C105.276 67.9855 105.316 67.9893 105.355 67.984H106.779C106.818 67.9893 106.858 67.9855 106.895 67.9729C106.932 67.9604 106.966 67.9394 106.994 67.9116C107.022 67.8839 107.043 67.8501 107.055 67.813C107.067 67.7758 107.071 67.7364 107.065 67.6976V60.7589H111.166C111.207 60.7645 111.248 60.7606 111.287 60.7476C111.326 60.7345 111.362 60.7127 111.391 60.6837C111.42 60.6547 111.442 60.6194 111.455 60.5805C111.468 60.5417 111.471 60.5004 111.466 60.4599V59.1882C111.458 58.9987 111.36 58.9039 111.16 58.9039Z" fill="#E32528"/>
<path d="M114.985 58.9039H113.577C113.375 58.9039 113.276 58.9986 113.276 59.1881V67.6976C113.276 67.8882 113.375 67.984 113.577 67.984H114.986C115.025 67.9894 115.065 67.9858 115.102 67.9733C115.14 67.9608 115.174 67.9399 115.202 67.9121C115.229 67.8843 115.25 67.8505 115.263 67.8133C115.275 67.776 115.279 67.7364 115.273 67.6976V59.1881C115.279 59.1493 115.275 59.1098 115.263 59.0726C115.25 59.0355 115.229 59.0018 115.201 58.9742C115.173 58.9466 115.139 58.9258 115.101 58.9136C115.064 58.9014 115.024 58.8981 114.985 58.9039Z" fill="#E32528"/>
<path d="M119.639 61.6663C119.683 61.4656 119.78 61.2801 119.919 61.1284C120.066 60.986 120.249 60.8868 120.449 60.842C120.726 60.7812 121.008 60.7533 121.291 60.7589H127.1C127.292 60.7589 127.388 60.6536 127.388 60.4599V59.1881C127.394 59.1494 127.39 59.1099 127.377 59.0729C127.364 59.0358 127.343 59.0022 127.315 58.9747C127.287 58.9471 127.253 58.9264 127.216 58.9141C127.179 58.9018 127.139 58.8983 127.1 58.9039H121.212C120.645 58.8925 120.079 58.9559 119.528 59.0923C119.108 59.1954 118.72 59.4001 118.399 59.6882C118.098 59.9778 117.879 60.3408 117.763 60.741C117.616 61.2543 117.548 61.7866 117.56 62.3201V64.5509C117.548 65.0879 117.616 65.6237 117.763 66.1406C117.877 66.5445 118.096 66.9114 118.399 67.2039C118.72 67.4918 119.108 67.6953 119.528 67.7955C120.08 67.9266 120.645 67.9874 121.212 67.9766H127.1C127.139 67.982 127.179 67.9784 127.216 67.9659C127.254 67.9534 127.288 67.9325 127.316 67.9047C127.344 67.877 127.365 67.8432 127.377 67.8059C127.39 67.7687 127.394 67.7291 127.388 67.6903V66.4196C127.394 66.3807 127.39 66.3412 127.377 66.304C127.365 66.2668 127.344 66.233 127.316 66.2053C127.288 66.1777 127.254 66.1568 127.216 66.1445C127.179 66.1322 127.139 66.1287 127.1 66.1343H121.291C121.008 66.1401 120.725 66.1118 120.449 66.0501C120.249 66.0056 120.066 65.9068 119.919 65.7648C119.779 65.6112 119.682 65.4234 119.639 65.2205C119.578 64.9368 119.549 64.6472 119.555 64.3572V62.5149C119.55 62.2298 119.578 61.945 119.639 61.6663Z" fill="#E32528"/>
<path d="M138.563 63.1781C138.18 62.7928 137.61 62.6005 136.853 62.6012H131.958C131.505 62.6012 131.278 62.3587 131.279 61.8738V61.4326C131.269 61.2445 131.324 61.0585 131.436 60.9063C131.542 60.7757 131.719 60.7115 131.971 60.7115H138.512C138.551 60.7169 138.59 60.7133 138.628 60.7009C138.665 60.6885 138.699 60.6676 138.727 60.6399C138.755 60.6123 138.776 60.5786 138.788 60.5415C138.801 60.5044 138.804 60.4649 138.799 60.4262V59.1934C138.804 59.1547 138.801 59.1153 138.788 59.0782C138.776 59.0412 138.755 59.0075 138.727 58.9799C138.699 58.9523 138.665 58.9316 138.628 58.9193C138.59 58.907 138.55 58.9036 138.512 58.9092H131.589C130.798 58.9092 130.215 59.1036 129.84 59.4924C129.466 59.8812 129.279 60.3915 129.279 61.0231V61.9706C129.279 62.6886 129.47 63.2402 129.853 63.6255C130.236 64.0108 130.806 64.2032 131.563 64.2025H136.463C136.917 64.2025 137.143 64.4446 137.143 64.9289V65.4552C137.152 65.6432 137.097 65.8288 136.987 65.9816C136.881 66.1111 136.704 66.1774 136.457 66.1774H129.603C129.401 66.1774 129.302 66.2722 129.302 66.4617V67.6934C129.302 67.884 129.401 67.9798 129.603 67.9798H136.834C137.626 67.9798 138.212 67.785 138.585 67.3955C138.958 67.006 139.146 66.4964 139.146 65.8648V64.8278C139.141 64.1119 138.947 63.562 138.563 63.1781Z" fill="#E32528"/>
</svg>

<svg width="140" height="111" fill="none" xmlns="http://www.w3.org/2000/svg"><path d="M58.544 32.328V0a143016.645 143016.645 0 0 1-3.8 26.466l-.052.353-.353.057a28.835 28.835 0 0 0-13.902 6.37l-.282.237-.307-.204-9.909-6.653-1.701-1.142 7.779 11.855.188.286-.208.273a28.53 28.53 0 0 0-5.443 12.594l-.058.351-.354.052L.275 55.238l-.275.04 30.142 4.387.354.05.058.35a28.532 28.532 0 0 0 5.444 12.595l.207.273-.188.287-6.066 9.244-1.713 2.61 3.854-2.586 7.756-5.208.307-.205.282.237a28.783 28.783 0 0 0 7.361 4.489 28.75 28.75 0 0 0 6.541 1.879l.353.056.052.354a80667.588 80667.588 0 0 1 3.8 26.466V78.231C46.086 77.97 36.03 67.82 36.03 55.38v-.204c0-12.44 10.055-22.59 22.513-22.85Zm-24.898-1.232c2.46 1.895 4.92 3.79 7.378 5.686a27.036 27.036 0 0 0-1.479 1.751 12898 12898 0 0 0-5.899-7.437Zm.26 26.11L14.93 55.279l18.976-1.926a28.25 28.25 0 0 0-.059 1.804v.243c0 .607.02 1.209.059 1.806Zm7.172 16.628-7.6 5.951c2.02-2.589 4.042-5.177 6.063-7.765.485.627.997 1.232 1.537 1.817v-.003Z" fill="#E32528"/><path d="m66.76 55.14-6.735-12.152c-.34-.606-.687-1.014-1.037-1.223a2.526 2.526 0 0 0-1.304-.316h-1.2c-.403-.008-.8.102-1.14.316-.326.21-.658.618-.996 1.223L47.673 55.14a.418.418 0 0 0-.051.334c.034.087.14.132.318.132h2.649a.495.495 0 0 0 .468-.264l1.403-2.607h9.563l1.437 2.606c.081.176.237.263.468.263h2.585c.162 0 .26-.044.294-.131a.418.418 0 0 0-.046-.333Zm-13.022-4.748 3.193-5.924a.25.25 0 0 1 .225-.142h.12a.252.252 0 0 1 .225.142l3.236 5.924h-7ZM82.347 41.452H66.453c-.311 0-.468.149-.468.445v1.98c0 .317.157.466.468.466h6.39V55.16c0 .296.149.445.447.445h2.218c.299 0 .448-.148.448-.445V44.343h6.39c.311 0 .468-.155.468-.465v-1.981c0-.296-.156-.445-.467-.445ZM99.865 52.734h-8.24a5.481 5.481 0 0 1-1.313-.13 1.704 1.704 0 0 1-.823-.445 1.8 1.8 0 0 1-.439-.85 5.737 5.737 0 0 1-.132-1.344v-8.069c0-.295-.15-.443-.447-.444h-2.198c-.318 0-.467.149-.467.445v8.37c0 .97.106 1.796.318 2.477.18.63.524 1.202.997 1.657.5.45 1.105.766 1.76.92.72.19 1.594.284 2.626.284h8.361c.299 0 .45-.149.45-.445v-1.982c-.003-.296-.154-.444-.453-.444ZM121.272 55.14l-6.735-12.152c-.339-.606-.685-1.014-1.038-1.223a2.517 2.517 0 0 0-1.302-.316h-1.2a2.069 2.069 0 0 0-1.14.316c-.325.21-.657.618-.997 1.223l-6.675 12.151a.412.412 0 0 0-.051.334c.034.087.139.132.318.132h2.649a.491.491 0 0 0 .467-.264l1.405-2.607h9.563l1.439 2.606c.083.176.238.263.47.263h2.583c.163 0 .262-.044.295-.131a.415.415 0 0 0-.051-.333Zm-13.024-4.748 3.196-5.924a.251.251 0 0 1 .224-.142h.122a.248.248 0 0 1 .224.142l3.235 5.924h-7.001ZM138.244 48.114c-.598-.6-1.487-.9-2.666-.9h-7.629c-.706 0-1.06-.377-1.06-1.132v-.688c-.016-.296.07-.588.244-.829.164-.202.441-.303.835-.303h10.191c.298 0 .447-.148.447-.445v-1.92c0-.296-.149-.444-.447-.445h-10.782c-1.234 0-2.143.303-2.727.909-.583.606-.875 1.401-.875 2.386v1.474c0 1.118.298 1.977.895 2.578.596.6 1.485.9 2.666.9h7.629c.707 0 1.06.377 1.06 1.131v.83c.016.296-.07.589-.245.83-.162.2-.44.302-.834.302h-10.682c-.318 0-.468.148-.468.445v1.921c0 .296.155.444.468.444h11.272c1.234 0 2.144-.303 2.728-.91.584-.607.876-1.403.875-2.386v-1.614c0-1.118-.299-1.978-.895-2.578ZM56.626 66.142h-5.287a3.539 3.539 0 0 1-.843-.084 1.095 1.095 0 0 1-.53-.286 1.14 1.14 0 0 1-.28-.544 3.642 3.642 0 0 1-.086-.863v-5.177a.249.249 0 0 0-.072-.213.253.253 0 0 0-.214-.071h-1.412c-.2 0-.3.095-.3.284v5.37a5.446 5.446 0 0 0 .203 1.589c.113.404.333.771.636 1.063.32.288.709.492 1.13.592a6.727 6.727 0 0 0 1.684.181h5.364a.257.257 0 0 0 .278-.17.251.251 0 0 0 .01-.116v-1.271a.251.251 0 0 0-.167-.272.257.257 0 0 0-.114-.012ZM69.787 60.745a2.329 2.329 0 0 0-.636-1.052 2.633 2.633 0 0 0-1.137-.596 6.535 6.535 0 0 0-1.695-.189h-4.025a6.46 6.46 0 0 0-1.683.189c-.42.103-.809.307-1.13.596-.3.29-.52.652-.636 1.052a5.379 5.379 0 0 0-.202 1.58v2.23a5.442 5.442 0 0 0 .202 1.59c.114.404.334.77.636 1.063.321.288.71.492 1.13.592a6.722 6.722 0 0 0 1.683.18h4.034a6.8 6.8 0 0 0 1.695-.18c.423-.1.814-.303 1.137-.592.305-.291.524-.658.636-1.063a5.606 5.606 0 0 0 .196-1.59v-2.23a5.548 5.548 0 0 0-.206-1.58Zm-1.802 3.671a3.56 3.56 0 0 1-.086.85c-.042.203-.139.39-.28.544-.145.144-.329.243-.53.286a3.477 3.477 0 0 1-.847.086h-3.877a3.466 3.466 0 0 1-.847-.086 1.08 1.08 0 0 1-.53-.286 1.163 1.163 0 0 1-.28-.544 3.569 3.569 0 0 1-.085-.85v-1.945a3.58 3.58 0 0 1 .084-.85c.044-.203.14-.391.28-.545.147-.142.33-.241.53-.285.279-.063.563-.091.848-.085h3.877c.285-.006.57.022.848.084.2.045.383.144.53.286.14.154.236.342.28.545.062.279.09.564.085.85v1.945ZM74.231 61.666c.045-.2.142-.386.281-.538.147-.142.33-.241.53-.286.278-.061.563-.09.847-.083h6.537c.192 0 .287-.105.287-.3v-1.27a.249.249 0 0 0-.072-.214.252.252 0 0 0-.215-.071h-6.62a6.456 6.456 0 0 0-1.684.188 2.63 2.63 0 0 0-1.13.596c-.3.29-.52.653-.635 1.053a5.309 5.309 0 0 0-.204 1.58v2.23a5.362 5.362 0 0 0 .204 1.59c.114.404.333.77.636 1.063.32.288.709.491 1.13.592a6.724 6.724 0 0 0 1.683.18h5.274c.522 0 .923-.149 1.202-.448.279-.299.418-.811.417-1.537V62.97c0-.258-.13-.389-.39-.389h-5.445c-.192 0-.288.1-.288.298v.973c0 .199.097.299.288.299h3.824c.106 0 .157.056.157.168v1.053c0 .295-.05.5-.157.617-.106.117-.269.175-.496.175h-4.307a3.526 3.526 0 0 1-.847-.084 1.106 1.106 0 0 1-.53-.286 1.174 1.174 0 0 1-.281-.545 3.652 3.652 0 0 1-.084-.863v-1.868a3.563 3.563 0 0 1 .088-.85ZM86.707 58.904h-1.41c-.2 0-.3.095-.3.284v8.51c0 .19.105.286.3.286h1.41a.258.258 0 0 0 .215-.072.253.253 0 0 0 .073-.214v-8.51a.252.252 0 0 0-.172-.274.255.255 0 0 0-.116-.01ZM98.509 63.178c-.383-.385-.954-.578-1.71-.577h-4.895c-.454 0-.68-.242-.68-.727v-.441a.82.82 0 0 1 .156-.527c.106-.13.283-.194.53-.194h6.54a.255.255 0 0 0 .289-.286v-1.233a.25.25 0 0 0-.172-.274.256.256 0 0 0-.116-.01h-6.913c-.792 0-1.375.194-1.75.583-.373.39-.56.9-.56 1.531v.948c0 .718.19 1.27.574 1.655.382.385.952.577 1.71.576h4.9c.454 0 .68.243.68.727v.526a.827.827 0 0 1-.157.527c-.106.13-.283.195-.53.195H89.55c-.2 0-.3.095-.3.285v1.231c0 .19.1.287.3.287h7.233c.792 0 1.375-.195 1.75-.585.373-.388.562-.899.562-1.53v-1.037c-.007-.716-.202-1.266-.586-1.65ZM111.16 58.904h-10.191c-.201 0-.3.095-.3.284v1.272a.26.26 0 0 0 .075.224.264.264 0 0 0 .225.075h4.1v6.939a.25.25 0 0 0 .17.275.255.255 0 0 0 .116.011h1.424a.255.255 0 0 0 .286-.286v-6.94h4.101a.267.267 0 0 0 .3-.298v-1.272c-.008-.19-.106-.284-.306-.284ZM114.985 58.904h-1.408c-.202 0-.301.095-.301.284v8.51c0 .19.099.286.301.286h1.409a.255.255 0 0 0 .287-.286v-8.51a.251.251 0 0 0-.072-.214.252.252 0 0 0-.216-.07ZM119.639 61.666c.044-.2.141-.386.28-.538a1.11 1.11 0 0 1 .53-.286c.277-.06.559-.089.842-.083h5.809c.192 0 .288-.105.288-.3v-1.27a.256.256 0 0 0-.288-.284h-5.888a6.466 6.466 0 0 0-1.684.187c-.42.103-.808.308-1.129.596a2.38 2.38 0 0 0-.636 1.053 5.302 5.302 0 0 0-.203 1.58v2.23a5.372 5.372 0 0 0 .203 1.59c.114.403.333.77.636 1.063.321.288.709.491 1.129.592a6.728 6.728 0 0 0 1.684.18h5.888a.255.255 0 0 0 .288-.286v-1.27a.24.24 0 0 0-.011-.116.245.245 0 0 0-.161-.16.254.254 0 0 0-.116-.01h-5.809a3.53 3.53 0 0 1-.842-.084 1.109 1.109 0 0 1-.53-.285 1.168 1.168 0 0 1-.28-.544 3.74 3.74 0 0 1-.084-.864v-1.842c-.005-.285.023-.57.084-.849ZM138.563 63.178c-.383-.385-.953-.578-1.71-.577h-4.895c-.453 0-.68-.242-.679-.727v-.441a.814.814 0 0 1 .157-.527c.106-.13.283-.194.535-.194h6.541a.257.257 0 0 0 .215-.072.25.25 0 0 0 .072-.214v-1.233a.25.25 0 0 0-.072-.213.256.256 0 0 0-.215-.07h-6.923c-.791 0-1.374.194-1.749.582-.374.39-.561.9-.561 1.531v.948c0 .718.191 1.27.574 1.655.383.385.953.577 1.71.577h4.9c.454 0 .68.242.68.726v.526a.833.833 0 0 1-.156.527c-.106.13-.283.195-.53.195h-6.854c-.202 0-.301.095-.301.285v1.231c0 .191.099.287.301.287h7.231c.792 0 1.378-.195 1.751-.585.373-.389.561-.899.561-1.53v-1.037c-.005-.716-.199-1.266-.583-1.65Z" fill="#E32528"/></svg>
